!!!COM: Abt, Fr.
!!!LAR: Arban, Jean-Baptiste
!!!OTL: Now the Swallows Are Returning
!!!OPR: The Art of Phrasing: 150 Classic and Popular Melodies
!!!ONM: No. 011
!!!OMD: Andantino
**kern	**dynam
*ITromp	*
*ITrd1c2	*
*clefG2	*
*B-:	*
*k[b-e-]	*
*M3/4	*
!!LO:TX:i:b:t=dolce
(8.fL	p
16g)J	.
=1	=1
4.f	.
(8ddL	.
8cc	.
8b-)J	.
=2	=2
(4a	.
4g),	.
(8.ccL	.
16b-)J	.
=3	=3 
4.a	.
8e-	.
(12e-L	.
12g	.
12f)J	.
=4	=4
4d	.
4r	.
(8f.L	.
16g)J	.
=5	=5
4.f	.
(8ddL	.
8.ee-	>
16dd)J	]
=6	=6
(4dd	.
4cc),	.
8.ccL	.
16ccJ	.
=7	=7
4.cc	.
8g	.
(12gL	.
12b-	.
12a)J	.
=8	=8
4f	.
4r	.
(8.fL	.
16g)J	.
=9	=9
4.f	.
(8aL	.
8dd	.
8cc)J	.
=10	-10
(8ccL	.
8b-)J	.
4d,	.
(8f.L	.
16g)J	.
=11	=11
4.f	.
(8aL	.
8.ee-	.
16dd)J	.
=12	=12
2dd,	.
8.ddL	.
16ddJ	.
=13	=13
(4g	.
8a)L	<
8bn	(
8cc	(
8ddJ	[
=14	=14
(8ffL	.
8een)J	.
4ee-,	.
(12gL	p
12dd	.
12cc)J	.
=15	=15
4.b-	.
(8b-L	.
8cc)	.
8cc#J	.
=16	=16
2dd,	.
8.ddL	.
16ddJ	.
=17	=17
(4g	.
8a)L	<
!!LO:TX:i:b:t=rall.
8bn	(
8cc	(
8ddJ	[
=18	=18
(8ffL	.
8een)J	.
4ee-;,	.
(12gL	.
12dd	.
12cc)J	.
=19	=19
(4.f	.
8b-)	.
!!LO:TX:i:b:t=rall.
(12aL	.
16b-Q)L	.
16aQ	.
16g#Q	.
16aQJ	.
(12dd;	.
12cc))J	.
=20	=20
2b-	.
==|!	==|!
*-	*-
!!!OCL: Edwin Franko Goldman
!!!OCL: Walter M. Smith
!!!OCL: Claude Gordon
!!!YOR: Arban's Complete Conservatory Method for Trumpet/Cornet
!!!PPR: Carl Fischer
!!!PPP: New York, NY
!!!PDT: 1893///
!!!reprint: Carl Fischer, 1982: ISBN 0-8258-0385-3
!!!EFL: 11/150
!!!ENC: Hubert Léveillé Gauvin
!!!END: 2018/10/29/